X:687
T: JOHANN VON NEPOMUK
N: E2104
O: Europa, Mitteleuropa, Deutschland, Ost - Preussen, Ermland
R: geistlich, Heiligen - Lied, Legende
M: 3/4
L: 1/8
K: Eb
 | E2G2B2 | e2dcB2 |
c2B2ec | B3AG2 |
GBBGAF | FAAFGE |
GBBGAF | FAAFGE |
BeG2F2 | E4z2

@@@ Tune index: 5371
